( Code generated by pocket.py widget )
( by Sammel Lothar - 2010 )
G17 G21 G90 G64 P0.01 M3 S3000 M7
G0 Z5.0000 
G0 X30.0000 Y30.0000 
( 40.0000 Diameter Circular Pocket at 30.0000,30.0000 )
(Parallel ZeroPath Circular Pocket )
G1 Z0.00 F100.00 (Move to Z Zero for incremental Z pathes )
G1 G91 Z-1.000 F100.00 
G1 G90 X32.000 F250.00 
G3 I-2.000
G1 G90 X34.000 F250.00 
G3 I-4.000
G1 G90 X36.000 F250.00 
G3 I-6.000
G1 G90 X38.000 F250.00 
G3 I-8.000
G1 G90 X40.000 F250.00 
G3 I-10.000
G1 G90 X42.000 F250.00 
G3 I-12.000
G1 X30.0000 Y30.0000 
G0 Z5.0000 
M5 M9 M2
